X: 9914
T: Dessous Les Lauriers Blancs
R: three-two
M: 3/2
K: Aminor
|:A2cB A2G2 A4|A2Bc d2B2 c2B2:|
|:A2Bc d2B2 c2A2|c2BA G2A2 B4|A2Bc d2B2 c2A2|A2Bc A2G2 A4:|

